svg/folder_hidden.svg

<svg xmlns="http://www.w3.org/2000/svg" viewBox="0 0 24 24"><path d="M9 4v4H6V4zM4 16v-3H2v3zm-2-4h2V9H2zm16-4h4a2 2 0 0 0-2-2h-2zm4 5h-2v3h2zm-2-4v3h2V9zM9 20v-2H6v2zm-4-2H4v-1H2v1a2 2 0 0 0 2 2h1zm15-1v1h-2v2h2c1.11 0 2-.89 2-2v-1zM4 8h1V4H4c-1.11 0-2 .89-2 2v2zm13 10h-3v2h3zm-4 0h-3v2h3zm4-12h-3v2h3zm-7 2h3V6h-1l-2-2z"/></svg>

<svg xmlns="http://www.w3.org/2000/svg" id="mdi-folder-hidden" viewBox="0 0 24 24"><path d="M9 4V8H6V4H9M4 16V13H2V16H4M2 12H4V9H2V12M18 8H22C22 6.89 21.1 6 20 6H18V8M22 13H20V16H22V13M20 9V12H22V9H20M9 20V18H6V20H9M5 18H4V17H2V18C2 19.11 2.9 20 4 20H5V18M20 17V18H18V20H20C21.11 20 22 19.11 22 18V17H20M4 8H5V4H4C2.89 4 2 4.89 2 6V8H4M17 18H14V20H17V18M13 18H10V20H13V18M17 6H14V8H17V6M10 8H13V6H12L10 4V8Z" /></svg>
